X:458
T:Turkey in the Straw
C:Mike Compton solo
N:Published in "Bluegrass and Old-Time Mandolin" by John Baldry Transcribed by Mie Stangeland
R:bluegrass
L:1/8
Q:1/4=253
M:4/4
K:G
z8 | {F}"G"GG GG GE DB, | G,B, B,D D{=F}G GA | B{^c}d dg gd B2 | AG GA "D"Ac BA | 
{F}"G"GG GG GE DB, | G,B, B,D DF GA | B{^c}d dg gd BA | "D"A{F}G GG "G"G2 FG | 
"G"[G2G,2] [G2G,2] GE DB, | G,B, B,D D{F}G GA | B{^c}d dg gd B2 | AG GA "D"Ac BA | 
{F}"G"GG GG GE DB, | [G2G,2] [G2G,2] GE DB, | G,B, B,D D{F}G GA | "D"A{F}G GG "G"G2 [G2G,2] | 
|: {^A}"G"Bd dd de d2 | {^A}Bd dd de de | "C"cc ce eg z2 | cc ce eg A2 | "G"g2 ga gd gb | 
gd c^A BG FG | {^A}Bd cA BG ED | "D"G,B, B,D "G"DG z2 :|: {^A}"G"Bd dd dd dc | 
{^A}Bd dd de de | "C"cc ce eg gg | gg g2 g2 g^a | "G"bb bb bb bb | ba gg "D"gg gg | 
"G"gd c^A BG ED |1 F"D"G GG "G"G4 :|2 F"D"G DB, "G"G,4 | 


